icons/circle/48/moinmoin.svg

<svg xmlns="http://www.w3.org/2000/svg" viewBox="0 0 48 48">
  <defs>
    <linearGradient id="a" x1="1" x2="47" gradientUnits="userSpaceOnUse" gradientTransform="rotate(-90 24 24)">
      <stop stop-color="#70bbde"/>
      <stop offset="1" stop-color="#80c4e2"/>
    </linearGradient>
  </defs>
  <path d="M36.31 5c5.859 4.062 9.688 10.831 9.688 18.5 0 12.426-10.07 22.5-22.5 22.5-7.669 0-14.438-3.828-18.5-9.688a23.24 23.24 0 0 0 3.781 4.969 22.923 22.923 0 0 0 15.469 5.969c12.703 0 23-10.298 23-23a22.92 22.92 0 0 0-5.969-15.469A23.216 23.216 0 0 0 36.31 5zm4.969 3.781A22.911 22.911 0 0 1 47.498 24.5c0 12.703-10.297 23-23 23a22.909 22.909 0 0 1-15.719-6.219C12.939 45.425 18.662 48 24.998 48c12.703 0 23-10.298 23-23 0-6.335-2.575-12.06-6.719-16.219z" opacity=".05"/>
  <path d="M41.28 8.781a22.923 22.923 0 0 1 5.969 15.469c0 12.703-10.297 23-23 23A22.92 22.92 0 0 1 8.78 41.281 22.911 22.911 0 0 0 24.499 47.5c12.703 0 23-10.298 23-23A22.909 22.909 0 0 0 41.28 8.781z" opacity=".1"/>
  <path d="M31.25 2.375C39.865 5.529 46 13.792 46 23.505c0 12.426-10.07 22.5-22.5 22.5-9.708 0-17.971-6.135-21.12-14.75a23 23 0 0 0 44.875-7 23 23 0 0 0-16-21.875z" opacity=".2"/>
  <path d="M24 1c12.703 0 23 10.297 23 23S36.703 47 24 47 1 36.703 1 24 11.297 1 24 1z" fill="url(#a)"/>
  <path d="M25 12a3.5 3.5 0 0 0-3.5 3.5 3.5 3.5 0 0 0 .008.244l-2.02 1.133A4 4 0 0 0 17 16a4 4 0 0 0-4 4 4 4 0 0 0 2 3.459v3.082A4 4 0 0 0 13 30a4 4 0 0 0 4 4 4 4 0 0 0 2.496-.875l2.02 1.135a3.5 3.5 0 0 0-.016.24A3.5 3.5 0 0 0 25 38a3.5 3.5 0 0 0 3.5-3.5 3.5 3.5 0 0 0-.008-.24l2.02-1.133A4 4 0 0 0 33 34a4 4 0 0 0 4-4 4 4 0 0 0-2-3.459v-3.082A4 4 0 0 0 37 20a4 4 0 0 0-4-4 4 4 0 0 0-2.496.875l-2.016-1.135a3.5 3.5 0 0 0 .012-.24A3.5 3.5 0 0 0 25 12m2.02 6.355l2.02 1.137A4 4 0 0 0 29 20a4 4 0 0 0 .039.516l-1.816 1.162A4 4 0 0 0 25 21a4 4 0 0 0-2.223.678l-1.814-1.162A4 4 0 0 0 21 20a4 4 0 0 0-.037-.508l2.02-1.135A3.5 3.5 0 0 0 25 19a3.5 3.5 0 0 0 2.02-.645m3.814 5a4 4 0 0 0 .166.104v3.082a4 4 0 0 0-.346.225l-1.719-1.074A4 4 0 0 0 29 25a4 4 0 0 0-.033-.479l1.865-1.166zm-11.66.002l1.859 1.162A4 4 0 0 0 21 25a4 4 0 0 0 .061.691l-1.717 1.074a4 4 0 0 0-.344-.224v-3.082a4 4 0 0 0 .172-.102zm3.482 4.877A4 4 0 0 0 25 29a4 4 0 0 0 2.344-.77l1.721 1.074A4 4 0 0 0 29 30a4 4 0 0 0 .037.508l-2.02 1.135A3.5 3.5 0 0 0 25 31a3.5 3.5 0 0 0-2.018.645l-2.019-1.137A4 4 0 0 0 21 30a4 4 0 0 0-.062-.69l1.717-1.072z" white-space="normal" solid-color="#000000" opacity=".1" color="#000" fill-rule="evenodd"/>
  <g>
    <path d="M40.03 7.531A22.922 22.922 0 0 1 45.999 23c0 12.703-10.297 23-23 23A22.92 22.92 0 0 1 7.53 40.031C11.708 44.322 17.54 47 23.999 47c12.703 0 23-10.298 23-23 0-6.462-2.677-12.291-6.969-16.469z" opacity=".1"/>
  </g>
  <g>
    <path d="M24 12.779l-8.736 4.914 1.473 2.613 7.264-4.086 7.264 4.086 1.473-2.613-8.736-4.914m0 9.451l-10.939 6.838 10.939 6.152 10.939-6.152-10.939-6.838m0 3.539l5.061 3.162-5.061 2.848-5.061-2.848 5.061-3.162" white-space="normal" solid-color="#000000" fill="#c8c8c8" color="#000" fill-rule="evenodd"/>
    <circle r="4" cy="24" cx="24" fill="#f9f9f9"/>
    <circle r="4" cy="29" cx="16" fill="#f9f9f9"/>
    <circle cx="16" cy="19" r="4" fill="#f9f9f9"/>
    <circle cx="32" cy="29" r="4" fill="#f9f9f9"/>
    <circle r="4" cy="19" cx="32" fill="#f9f9f9"/>
    <circle cx="24" cy="33.5" r="3.5" fill="#c8c8c8"/>
    <circle r="3.5" cy="14.5" cx="24" fill="#c8c8c8"/>
    <path d="M14 15.7V29h4v-6.75L24 26l6-3.75V29h4V15.7l-10 6.4z" white-space="normal" solid-color="#000000" fill="#f9f9f9" color="#000" fill-rule="evenodd"/>
  </g>
</svg>

<svg xmlns="http://www.w3.org/2000/svg" viewBox="0 0 48 48">
 <defs>
  <linearGradient id="linearGradient3764" x1="1" x2="47" gradientUnits="userSpaceOnUse" gradientTransform="matrix(0,-1,1,0,-1.5e-6,47.999998)">
   <stop style="stop-color:#70bbde;stop-opacity:1"/>
   <stop offset="1" style="stop-color:#80c4e2;stop-opacity:1"/>
  </linearGradient>
 </defs>
 <g>
  <path d="m 36.31 5 c 5.859 4.062 9.688 10.831 9.688 18.5 c 0 12.426 -10.07 22.5 -22.5 22.5 c -7.669 0 -14.438 -3.828 -18.5 -9.688 c 1.037 1.822 2.306 3.499 3.781 4.969 c 4.085 3.712 9.514 5.969 15.469 5.969 c 12.703 0 23 -10.298 23 -23 c 0 -5.954 -2.256 -11.384 -5.969 -15.469 c -1.469 -1.475 -3.147 -2.744 -4.969 -3.781 z m 4.969 3.781 c 3.854 4.113 6.219 9.637 6.219 15.719 c 0 12.703 -10.297 23 -23 23 c -6.081 0 -11.606 -2.364 -15.719 -6.219 c 4.16 4.144 9.883 6.719 16.219 6.719 c 12.703 0 23 -10.298 23 -23 c 0 -6.335 -2.575 -12.06 -6.719 -16.219 z" style="opacity:0.05"/>
  <path d="m 41.28 8.781 c 3.712 4.085 5.969 9.514 5.969 15.469 c 0 12.703 -10.297 23 -23 23 c -5.954 0 -11.384 -2.256 -15.469 -5.969 c 4.113 3.854 9.637 6.219 15.719 6.219 c 12.703 0 23 -10.298 23 -23 c 0 -6.081 -2.364 -11.606 -6.219 -15.719 z" style="opacity:0.1"/>
  <path d="m 31.25 2.375 c 8.615 3.154 14.75 11.417 14.75 21.13 c 0 12.426 -10.07 22.5 -22.5 22.5 c -9.708 0 -17.971 -6.135 -21.12 -14.75 a 23 23 0 0 0 44.875 -7 a 23 23 0 0 0 -16 -21.875 z" style="opacity:0.2"/>
 </g>
 <g>
  <path d="m 24 1 c 12.703 0 23 10.297 23 23 c 0 12.703 -10.297 23 -23 23 -12.703 0 -23 -10.297 -23 -23 0 -12.703 10.297 -23 23 -23 z" style="fill:url(#linearGradient3764);fill-opacity:1"/>
 </g>
 <path d="m 25 12 a 3.5 3.5 0 0 0 -3.5 3.5 3.5 3.5 0 0 0 0.008 0.244 l -2.02 1.133 A 4 4 0 0 0 17 16 a 4 4 0 0 0 -4 4 4 4 0 0 0 2 3.459 l 0 3.082 A 4 4 0 0 0 13 30 a 4 4 0 0 0 4 4 4 4 0 0 0 2.496 -0.875 l 2.02 1.135 A 3.5 3.5 0 0 0 21.5 34.5 3.5 3.5 0 0 0 25 38 3.5 3.5 0 0 0 28.5 34.5 3.5 3.5 0 0 0 28.492 34.26 l 2.02 -1.133 A 4 4 0 0 0 33 34 4 4 0 0 0 37 30 4 4 0 0 0 35 26.541 l 0 -3.082 A 4 4 0 0 0 37 20 4 4 0 0 0 33 16 4 4 0 0 0 30.504 16.875 L 28.488 15.74 A 3.5 3.5 0 0 0 28.5 15.5 3.5 3.5 0 0 0 25 12 m 2.02 6.355 2.02 1.137 A 4 4 0 0 0 29 20 a 4 4 0 0 0 0.039 0.516 l -1.816 1.162 A 4 4 0 0 0 25 21 4 4 0 0 0 22.777 21.678 L 20.963 20.516 A 4 4 0 0 0 21 20 4 4 0 0 0 20.963 19.492 l 2.02 -1.135 A 3.5 3.5 0 0 0 25 19 3.5 3.5 0 0 0 27.02 18.355 m 3.814 5 A 4 4 0 0 0 31 23.459 l 0 3.082 a 4 4 0 0 0 -0.346 0.225 l -1.719 -1.074 A 4 4 0 0 0 29 25 4 4 0 0 0 28.967 24.521 l 1.865 -1.166 z m -11.66 0.002 1.859 1.162 A 4 4 0 0 0 21 25 a 4 4 0 0 0 0.061 0.691 l -1.717 1.074 A 4 4 0 0 0 19 26.541 l 0 -3.082 a 4 4 0 0 0 0.172 -0.102 z m 3.482 4.877 A 4 4 0 0 0 25 29 4 4 0 0 0 27.344 28.23 l 1.721 1.074 A 4 4 0 0 0 29 30 a 4 4 0 0 0 0.037 0.508 l -2.02 1.135 A 3.5 3.5 0 0 0 25 31 3.5 3.5 0 0 0 22.982 31.645 L 20.963 30.508 A 4 4 0 0 0 21 30 4 4 0 0 0 20.938 29.31 l 1.717 -1.072 z" mix-blend-mode="normal" isolation="auto" white-space="normal" solid-opacity="1" solid-color="#000000" style="visibility:visible;shape-rendering:auto;color-interpolation-filters:linearRGB;fill:#000;opacity:0.1;image-rendering:auto;fill-opacity:1;stroke:none;display:inline;color:#000;fill-rule:evenodd;color-rendering:auto;color-interpolation:sRGB"/>
 <g>
  <g>
   <g transform="translate(1,1)">
    <g style="opacity:0.1">
     <!-- color: #80c4e2 -->
    </g>
   </g>
  </g>
 </g>
 <g transform="matrix(1.0972432,0,0,1.1016949,-2.2301471,-2.4946605)">
  <g>
   <!-- color: #80c4e2 -->
  </g>
 </g>
 <g>
  <path d="m 40.03 7.531 c 3.712 4.084 5.969 9.514 5.969 15.469 0 12.703 -10.297 23 -23 23 c -5.954 0 -11.384 -2.256 -15.469 -5.969 4.178 4.291 10.01 6.969 16.469 6.969 c 12.703 0 23 -10.298 23 -23 0 -6.462 -2.677 -12.291 -6.969 -16.469 z" style="opacity:0.1"/>
 </g>
 <g>
  <path d="m 24 12.779 -8.736 4.914 1.473 2.613 l 7.264 -4.086 7.264 4.086 1.473 -2.613 -8.736 -4.914 m 0 9.451 -10.939 6.838 l 10.939 6.152 10.939 -6.152 -10.939 -6.838 m 0 3.539 5.061 3.162 l -5.061 2.848 -5.061 -2.848 5.061 -3.162" mix-blend-mode="normal" isolation="auto" white-space="normal" solid-opacity="1" solid-color="#000000" style="visibility:visible;shape-rendering:auto;color-interpolation-filters:linearRGB;fill:#c8c8c8;opacity:1;image-rendering:auto;fill-opacity:1;stroke:none;display:inline;color:#000;fill-rule:evenodd;color-rendering:auto;color-interpolation:sRGB"/>
  <circle r="4" cy="24" cx="24" style="fill:#f9f9f9;opacity:1;fill-opacity:1;stroke:none"/>
  <circle r="4" cy="29" cx="16" style="fill:#f9f9f9;opacity:1;fill-opacity:1;stroke:none"/>
  <circle cx="16" cy="19" r="4" style="fill:#f9f9f9;opacity:1;fill-opacity:1;stroke:none"/>
  <circle cx="32" cy="29" r="4" style="fill:#f9f9f9;opacity:1;fill-opacity:1;stroke:none"/>
  <circle r="4" cy="19" cx="32" style="fill:#f9f9f9;opacity:1;fill-opacity:1;stroke:none"/>
  <circle cx="24" cy="33.5" r="3.5" style="fill:#c8c8c8;opacity:1;fill-opacity:1;stroke:none"/>
  <circle r="3.5" cy="14.5" cx="24" style="fill:#c8c8c8;opacity:1;fill-opacity:1;stroke:none"/>
  <path d="m 14 15.7 0 13.3 4 0 0 -6.75 6 3.75 6 -3.75 0 6.75 4 0 0 -13.3 -10 6.4 z" mix-blend-mode="normal" isolation="auto" white-space="normal" solid-opacity="1" solid-color="#000000" style="visibility:visible;shape-rendering:auto;color-interpolation-filters:linearRGB;fill:#f9f9f9;opacity:1;image-rendering:auto;fill-opacity:1;stroke:none;display:inline;color:#000;fill-rule:evenodd;color-rendering:auto;color-interpolation:sRGB"/>
 </g>
</svg>
